X:35
T:Aujourd'hui dans notre monde - F47
C:(Jesu Redemptor)
M:3
L:1/8
K:C
Q:"Tres simplement"
C2D|E2G|G2F|EDE|F2E|D3|C2E|G2A|A2G|ABc|BAG|A3|
A2B|G3|F2G|E3|DCD|(D2E)|E3|C2D|E2G|G2F|EDE|(F2E)|HD3||
